static/logos/docker-wordmark-color.svg

<svg width="100" height="26" viewBox="0 0 100 26" fill="none" xmlns="http://www.w3.org/2000/svg">
<g clip-path="url(#clip0_1_2987)">
<path d="M47.0173 7.60111C46.4909 7.58376 46.0501 7.99734 46.0328 8.52498C46.0321 8.54596 46.0321 8.56697 46.0328 8.58795V13.3331C43.7487 11.4944 40.4101 11.8599 38.5757 14.1493C37.819 15.0938 37.4066 16.2689 37.407 17.4802C37.3569 20.4153 39.6902 22.8353 42.6185 22.8854C45.5466 22.9356 47.9611 20.5969 48.0113 17.6619C48.0122 17.6013 48.0122 17.5408 48.0113 17.4802V8.59264C48.019 8.32629 47.9141 8.06903 47.7223 7.88465C47.5342 7.70046 47.2801 7.59992 47.0173 7.6058V7.60111ZM45.7717 18.7599C45.433 19.5582 44.801 20.1955 44.0066 20.5399C43.1743 20.8931 42.2347 20.8931 41.4024 20.5399C40.6094 20.1988 39.9799 19.5622 39.6466 18.7645C39.2981 17.9396 39.2981 17.0084 39.6466 16.1836C39.9806 15.3886 40.6103 14.7552 41.4024 14.4175C42.2347 14.0643 43.1743 14.0643 44.0066 14.4175C44.801 14.7619 45.433 15.3991 45.7717 16.1976C46.1199 17.0192 46.1199 17.9475 45.7717 18.7692" fill="#4990DF"/>
<path d="M58.0907 13.7172C56.0188 11.6424 52.6614 11.6439 50.5914 13.7206C49.5982 14.7168 49.0403 16.0672 49.0399 17.4755C48.9897 20.4106 51.323 22.8306 54.2513 22.8808C57.1797 22.9309 59.594 20.5922 59.6441 17.6572C59.645 17.5966 59.645 17.5361 59.6441 17.4755C59.6445 16.7765 59.5111 16.084 59.2513 15.4352C58.9839 14.7901 58.589 14.2058 58.0907 13.7172ZM57.4059 18.7552C57.2366 19.1491 56.9956 19.5079 56.6951 19.8133C56.3918 20.1186 56.0338 20.3636 55.6394 20.5352C54.8075 20.8885 53.8684 20.8885 53.0366 20.5352C52.2429 20.1948 51.6127 19.5581 51.2794 18.7598C50.931 17.9349 50.931 17.0038 51.2794 16.1789C51.6143 15.3851 52.2448 14.7533 53.0366 14.4175C53.8684 14.0642 54.8075 14.0642 55.6394 14.4175C56.0338 14.5891 56.3918 14.834 56.6951 15.1394C56.9956 15.4447 57.2366 15.8036 57.4059 16.1975C57.7523 17.0196 57.7523 17.9471 57.4059 18.7691" fill="#4990DF"/>
<path d="M80.017 13.1471C80.0174 13.0165 79.9907 12.8872 79.938 12.7676C79.8847 12.6528 79.8118 12.548 79.7233 12.4577C79.6357 12.3663 79.5306 12.2935 79.4142 12.2439C79.2912 12.1931 79.1594 12.1673 79.0261 12.168C78.8383 12.1667 78.654 12.2206 78.4961 12.3229L72.8345 16.0146V8.60184C72.8397 8.3365 72.735 8.08086 72.5455 7.89543C72.3636 7.70358 72.1097 7.5969 71.8455 7.60107C71.3001 7.59765 70.8551 8.03807 70.8516 8.58479V21.7884C70.8486 22.0521 70.953 22.3056 71.1409 22.4902C71.3242 22.6827 71.5797 22.7894 71.8455 22.7846C72.1088 22.7888 72.3617 22.682 72.5425 22.4902C72.7303 22.3056 72.8348 22.0521 72.8315 21.7884V18.3678L73.9861 17.6088L78.3617 22.5336C78.539 22.7044 78.7774 22.7966 79.0231 22.7892C79.1563 22.7907 79.2884 22.7649 79.4111 22.7132C79.5277 22.6648 79.6331 22.5926 79.7202 22.501C79.8102 22.4083 79.883 22.3003 79.935 22.1819C79.9877 22.0623 80.0144 21.933 80.0139 21.8024C80.0144 21.545 79.9165 21.2971 79.7404 21.1099L75.6725 16.5165L79.6383 13.9356C79.8945 13.7582 80.0383 13.4585 80.017 13.1471Z" fill="#4990DF"/>
<path d="M63.585 15.1178C63.8906 14.8149 64.251 14.5731 64.6468 14.4051C65.0567 14.2303 65.4981 14.1418 65.9435 14.1449C66.3379 14.1413 66.7295 14.2117 67.0981 14.3525C67.4674 14.5014 67.8096 14.7108 68.1105 14.9722C68.2934 15.1182 68.5211 15.196 68.755 15.1921C69.0213 15.2034 69.2803 15.1022 69.4691 14.9133C69.6548 14.7236 69.7557 14.4664 69.7487 14.2007C69.752 13.9122 69.6267 13.6373 69.407 13.4508C68.4585 12.5998 67.2243 12.1389 65.9513 12.1604C63.0225 12.1604 60.6485 14.5401 60.6485 17.4756C60.641 20.4068 63.0058 22.789 65.9302 22.7964C67.2068 22.7996 68.4417 22.3404 69.4072 21.5034C69.6063 21.3135 69.7182 21.0493 69.7161 20.7738C69.7337 20.2461 69.3211 19.8044 68.7946 19.7869C68.7737 19.7862 68.7527 19.7862 68.7316 19.7869C68.5063 19.788 68.2871 19.8606 68.1058 19.9945C67.8098 20.2558 67.4702 20.463 67.1026 20.6064C66.7337 20.7455 66.3424 20.8148 65.9482 20.8109C65.5028 20.8141 65.0613 20.7255 64.6515 20.5507C64.256 20.3822 63.8958 20.1405 63.5897 19.8381C62.2904 18.5437 62.2841 16.4387 63.5756 15.1365C63.5803 15.1318 63.585 15.1271 63.5897 15.1224" fill="#4990DF"/>
<path d="M99.6775 12.825C99.4859 12.6448 99.2583 12.5075 99.0098 12.4221C98.7257 12.3199 98.4306 12.2513 98.1304 12.2177C97.8334 12.1811 97.5346 12.1625 97.2355 12.1619C96.6285 12.16 96.0259 12.2648 95.4552 12.4717C94.8957 12.6762 94.3735 12.9714 93.9095 13.3455V13.1472C93.8878 12.5992 93.4271 12.1725 92.8805 12.1942C92.3641 12.2147 91.9501 12.6296 91.9297 13.1472V21.8024C91.9512 22.3505 92.4119 22.7771 92.9587 22.7555C93.4751 22.7351 93.8892 22.3201 93.9095 21.8024V17.4755C93.9065 17.0286 93.9948 16.5857 94.169 16.1743C94.3358 15.7797 94.5768 15.421 94.8786 15.1177C95.1824 14.8155 95.5405 14.5736 95.9341 14.4051C96.3447 14.2303 96.7866 14.1418 97.2325 14.1449C97.6758 14.1405 98.1159 14.221 98.5292 14.3819C98.6597 14.4449 98.8018 14.4802 98.9466 14.4857C99.0796 14.4869 99.2117 14.4611 99.3346 14.4098C99.451 14.3604 99.5562 14.2877 99.6435 14.196C99.7318 14.1057 99.8039 14.001 99.8569 13.8862C99.9105 13.7636 99.9379 13.6312 99.9372 13.4973C99.9468 13.248 99.8503 13.0064 99.6714 12.8327" fill="#4990DF"/>
<path d="M90.4818 15.4431C89.6396 13.4699 87.7097 12.1858 85.5684 12.1743C82.6406 12.1735 80.2666 14.5517 80.2656 17.4864V17.4879C80.2652 20.4243 82.6394 22.8052 85.5689 22.8057C86.8408 22.806 88.0703 22.3482 89.0338 21.5158C89.0476 21.5019 89.0691 21.4833 89.0724 21.4786C89.1586 21.4085 89.2342 21.3261 89.2965 21.2339C89.6148 20.7744 89.5012 20.1434 89.0429 19.8241C88.6588 19.574 88.1539 19.6194 87.8204 19.9342C87.7879 19.9636 87.6951 20.0504 87.6799 20.0627L87.6659 20.0751C87.3837 20.3157 87.0614 20.5044 86.7139 20.6328C86.3462 20.7627 85.9584 20.8267 85.5687 20.8218C85.2092 20.8236 84.852 20.766 84.5113 20.6514C84.1797 20.5403 83.867 20.3789 83.5839 20.1727C83.3022 19.966 83.0544 19.7161 82.8499 19.4322C82.641 19.1423 82.4811 18.8199 82.3769 18.4779H89.8745C90.1375 18.4839 90.3919 18.3827 90.5792 18.1975C90.7722 18.0144 90.8773 17.7572 90.8682 17.4911C90.8743 16.7906 90.7424 16.0957 90.4804 15.4462L90.4818 15.4431ZM82.3752 16.5042C82.4743 16.1619 82.6312 15.8392 82.8389 15.55C83.0445 15.2656 83.294 15.0156 83.5778 14.8094C83.8647 14.6035 84.1809 14.4421 84.516 14.3308C84.8549 14.2176 85.2097 14.1601 85.5668 14.1603C85.9221 14.1599 86.275 14.2175 86.6118 14.3308C87.2801 14.5534 87.8626 14.9796 88.2778 15.55C88.49 15.8388 88.6518 16.1615 88.757 16.5042H82.3752Z" fill="#4990DF"/>
<path d="M35.595 9.83345C35.4978 9.75596 34.5889 9.06816 32.6723 9.06816C32.1664 9.07038 31.6613 9.11387 31.1622 9.19827C30.7913 6.64989 28.6894 5.40743 28.5953 5.35169L28.0805 5.0542L27.7421 5.54378C27.3182 6.20141 27.0086 6.92638 26.8271 7.68783C26.484 9.14254 26.6927 10.5089 27.4299 11.677C26.5395 12.1742 25.1114 12.2966 24.8224 12.3075H1.17828C0.560698 12.3083 0.059561 12.8086 0.0561954 13.4275C0.0286167 15.5037 0.379553 17.5675 1.09172 19.5173C1.90622 21.6583 3.11797 23.2353 4.69446 24.2005C6.46106 25.285 9.33118 25.9047 12.5846 25.9047C14.0544 25.9091 15.5213 25.7759 16.9663 25.5065C18.975 25.1368 20.9079 24.433 22.6849 23.4243C24.1491 22.5744 25.4672 21.4931 26.5875 20.2222C28.4608 18.0967 29.5767 15.7295 30.4067 13.6258H30.7374C32.7882 13.6258 34.0496 12.8032 34.7451 12.1138C35.2072 11.6742 35.5681 11.1386 35.8023 10.5445L35.9491 10.1138L35.595 9.83345Z" fill="#4990DF"/>
<path d="M3.37038 11.6135H6.53881C6.69162 11.6135 6.81546 11.4893 6.81546 11.3362V8.50737C6.8163 8.35421 6.69312 8.22938 6.54038 8.22852C6.53986 8.22852 6.5393 8.22852 6.53881 8.22852H3.37038C3.21757 8.22852 3.09375 8.35268 3.09375 8.5058V11.3362C3.09375 11.4893 3.21757 11.6135 3.37038 11.6135Z" fill="#4990DF"/>
<path d="M7.73137 11.6135H10.8998C11.0526 11.6135 11.1764 11.4893 11.1764 11.3362V8.50737C11.1773 8.35421 11.0541 8.22938 10.9013 8.22852C10.9008 8.22852 10.9002 8.22852 10.8998 8.22852H7.73132C7.57765 8.22852 7.45312 8.35334 7.45312 8.50737V11.3362C7.45404 11.4896 7.5783 11.6135 7.73137 11.6135Z" fill="#4990DF"/>
<path d="M12.1673 11.6135H15.3357C15.4885 11.6135 15.6124 11.4893 15.6124 11.3362V8.50737C15.6132 8.35421 15.4901 8.22938 15.3372 8.22852C15.3367 8.22852 15.3362 8.22852 15.3357 8.22852H12.1673C12.0144 8.22852 11.8906 8.35268 11.8906 8.5058V11.3362C11.8907 11.4893 12.0146 11.6135 12.1673 11.6135Z" fill="#4990DF"/>
<path d="M16.5501 11.6135H19.7185C19.8716 11.6135 19.9958 11.4896 19.9967 11.3362V8.50737C19.9967 8.35334 19.8722 8.22852 19.7185 8.22852H16.5501C16.3973 8.22852 16.2734 8.35268 16.2734 8.5058V11.3362C16.2734 11.4893 16.3973 11.6135 16.5501 11.6135Z" fill="#4990DF"/>
<path d="M7.73132 7.54385H10.8998C11.0528 7.54301 11.1764 7.4184 11.1764 7.26502V4.43622C11.1764 4.28306 11.0525 4.15894 10.8998 4.15894H7.73132C7.57832 4.15894 7.45399 4.2828 7.45312 4.43622V7.26502C7.45399 7.41868 7.57802 7.54301 7.73132 7.54385Z" fill="#4990DF"/>
<path d="M12.1673 7.54385H15.3357C15.4887 7.54301 15.6123 7.4184 15.6123 7.26502V4.43622C15.6123 4.28306 15.4884 4.15894 15.3357 4.15894H12.1673C12.0145 4.15894 11.8906 4.2831 11.8906 4.43622V7.26502C11.8906 7.4184 12.0143 7.54301 12.1673 7.54385Z" fill="#4990DF"/>
<path d="M16.5501 7.54385H19.7185C19.8718 7.54301 19.9958 7.41868 19.9967 7.26502V4.43622C19.9958 4.2828 19.8716 4.15894 19.7185 4.15894H16.5501C16.3973 4.15894 16.2734 4.2831 16.2734 4.43622V7.26502C16.2734 7.4184 16.3971 7.54301 16.5501 7.54385Z" fill="#4990DF"/>
<path d="M16.5501 3.47262H19.7185C19.8716 3.47262 19.9958 3.34871 19.9967 3.19534V0.36493C19.9958 0.211511 19.8716 0.0876465 19.7185 0.0876465H16.5501C16.3973 0.0876465 16.2734 0.211762 16.2734 0.36493V3.19529C16.2734 3.34845 16.3973 3.47262 16.5501 3.47262Z" fill="#4990DF"/>
<path d="M20.9641 11.6135H24.1326C24.2855 11.6135 24.4099 11.4896 24.4108 11.3362V8.50737C24.4108 8.35334 24.2862 8.22852 24.1326 8.22852H20.9641C20.8114 8.22852 20.6875 8.35268 20.6875 8.5058V11.3362C20.6875 11.4893 20.8114 11.6135 20.9641 11.6135Z" fill="#4990DF"/>
</g>
<defs>
<clipPath id="clip0_1_2987">
<rect width="100" height="25.9953" fill="white"/>
</clipPath>
</defs>
</svg>

<svg xmlns="http://www.w3.org/2000/svg" width="246.154" height="64" fill="none" viewBox="0 0 100 26"><g fill="#4990DF" clip-path="url(#a)"><path d="M47.017 7.601a.955.955 0 0 0-.984.987v4.745a5.296 5.296 0 0 0-7.457.816 5.325 5.325 0 0 0-1.169 3.331 5.31 5.31 0 0 0 5.212 5.405 5.309 5.309 0 0 0 5.392-5.405V8.593a.944.944 0 0 0-.289-.708.976.976 0 0 0-.705-.28v-.004ZM45.772 18.76a3.377 3.377 0 0 1-1.765 1.78 3.333 3.333 0 0 1-2.605 0 3.33 3.33 0 0 1-1.755-1.775 3.316 3.316 0 0 1 0-2.581 3.315 3.315 0 0 1 4.36-1.767 3.377 3.377 0 0 1 1.765 1.78c.348.822.348 1.75 0 2.572M58.09 13.717a5.294 5.294 0 0 0-7.499.004 5.32 5.32 0 0 0-1.551 3.755 5.31 5.31 0 0 0 5.211 5.405 5.309 5.309 0 0 0 5.393-5.405 5.48 5.48 0 0 0-.393-2.04 5.189 5.189 0 0 0-1.16-1.719Zm-.684 5.038c-.17.394-.41.753-.71 1.058a3.4 3.4 0 0 1-1.057.722 3.328 3.328 0 0 1-2.602 0 3.325 3.325 0 0 1-1.758-1.775 3.317 3.317 0 0 1 5.416-3.62 3.312 3.312 0 0 1 .71 3.63M80.017 13.147c0-.13-.026-.26-.079-.38a1.113 1.113 0 0 0-.215-.31.937.937 0 0 0-.697-.289.963.963 0 0 0-.53.155l-5.661 3.692V8.602a.962.962 0 0 0-.29-.707.944.944 0 0 0-.7-.294.989.989 0 0 0-.993.984v13.203a.968.968 0 0 0 .289.702c.183.193.439.3.704.295a.937.937 0 0 0 .698-.295.967.967 0 0 0 .288-.702v-3.42l1.155-.76 4.376 4.926c.177.17.415.263.661.255a.971.971 0 0 0 .388-.076.906.906 0 0 0 .31-.212c.09-.093.162-.2.214-.32a.932.932 0 0 0 .079-.379c0-.257-.097-.505-.274-.692l-4.067-4.593 3.965-2.581a.885.885 0 0 0 .379-.789ZM63.585 15.118a3.39 3.39 0 0 1 1.062-.713c.41-.175.851-.263 1.296-.26.395-.004.787.067 1.155.207.37.15.712.359 1.013.62.182.146.41.224.644.22a.953.953 0 0 0 .994-.991.97.97 0 0 0-.342-.75 5.047 5.047 0 0 0-3.456-1.29 5.309 5.309 0 0 0-5.302 5.315 5.301 5.301 0 0 0 5.281 5.32 5.288 5.288 0 0 0 3.477-1.293c.2-.19.311-.454.31-.73a.955.955 0 0 0-.985-.986 1.062 1.062 0 0 0-.626.207 3.363 3.363 0 0 1-1.003.612c-.37.14-.76.209-1.155.205a3.246 3.246 0 0 1-1.296-.26 3.33 3.33 0 0 1-1.076-5.414l.014-.015M99.677 12.825a1.854 1.854 0 0 0-.667-.403 3.87 3.87 0 0 0-.88-.204 7.438 7.438 0 0 0-.894-.056 5.176 5.176 0 0 0-1.78.31c-.56.204-1.082.5-1.547.873v-.198a.992.992 0 0 0-1.98 0v8.655a.992.992 0 0 0 1.98 0v-4.326c-.003-.447.086-.89.26-1.302.167-.394.408-.753.71-1.056a3.387 3.387 0 0 1 1.055-.713c.41-.175.853-.263 1.299-.26a3.48 3.48 0 0 1 1.296.237c.13.063.273.098.418.104a.985.985 0 0 0 .388-.076.926.926 0 0 0 .309-.214c.088-.09.16-.195.213-.31a.958.958 0 0 0 .08-.389.879.879 0 0 0-.266-.664M90.482 15.443a5.375 5.375 0 0 0-4.914-3.269 5.308 5.308 0 0 0-5.302 5.312v.002a5.31 5.31 0 0 0 5.303 5.318 5.298 5.298 0 0 0 3.465-1.29l.038-.037c.087-.07.162-.153.224-.245.319-.46.205-1.09-.253-1.41a.992.992 0 0 0-1.223.11l-.14.129-.014.012a3.15 3.15 0 0 1-.952.558c-.368.13-.756.194-1.145.189a3.265 3.265 0 0 1-1.058-.17 3.34 3.34 0 0 1-1.661-1.22 3.255 3.255 0 0 1-.473-.954h7.498a.971.971 0 0 0 .704-.28.93.93 0 0 0 .29-.707 5.342 5.342 0 0 0-.389-2.045l.002-.003Zm-8.107 1.061c.1-.342.256-.665.464-.954a3.32 3.32 0 0 1 .739-.74c.287-.207.603-.368.938-.48a3.31 3.31 0 0 1 2.096 0c.668.223 1.25.65 1.666 1.22.212.289.374.611.479.954h-6.382ZM35.595 9.833c-.097-.077-1.006-.765-2.923-.765a9.302 9.302 0 0 0-1.51.13c-.37-2.548-2.473-3.79-2.567-3.846l-.514-.298-.339.49a6.919 6.919 0 0 0-.915 2.144c-.343 1.455-.134 2.82.603 3.989-.89.497-2.319.62-2.608.63H1.178c-.617.001-1.118.502-1.122 1.12a17.09 17.09 0 0 0 1.036 6.09c.814 2.141 2.026 3.718 3.602 4.684 1.767 1.084 4.637 1.704 7.89 1.704 1.47.004 2.937-.13 4.382-.399a18.291 18.291 0 0 0 5.719-2.082 15.728 15.728 0 0 0 3.902-3.202c1.874-2.125 2.99-4.493 3.82-6.596h.33c2.051 0 3.313-.823 4.008-1.512.462-.44.823-.975 1.057-1.57l.147-.43-.354-.28Z"/><path d="M3.37 11.614H6.54a.277.277 0 0 0 .276-.278V8.507a.277.277 0 0 0-.275-.278H3.37a.277.277 0 0 0-.276.277v2.83c0 .153.124.277.276.277ZM7.731 11.614H10.9a.277.277 0 0 0 .276-.278V8.507a.277.277 0 0 0-.275-.278h-3.17a.278.278 0 0 0-.278.278v2.83c.001.153.125.277.278.277ZM12.167 11.614h3.169a.277.277 0 0 0 .276-.278V8.507a.277.277 0 0 0-.275-.278h-3.17a.277.277 0 0 0-.276.277v2.83c0 .153.124.277.276.277ZM16.55 11.614h3.168a.279.279 0 0 0 .279-.278V8.507a.278.278 0 0 0-.279-.278H16.55a.277.277 0 0 0-.277.277v2.83c0 .153.124.277.277.277ZM7.731 7.544H10.9a.279.279 0 0 0 .276-.279V4.436a.277.277 0 0 0-.276-.277H7.73a.279.279 0 0 0-.278.277v2.829a.28.28 0 0 0 .278.279ZM12.167 7.544h3.169a.279.279 0 0 0 .276-.279V4.436a.277.277 0 0 0-.276-.277h-3.169a.277.277 0 0 0-.276.277v2.829c0 .153.123.278.276.279ZM16.55 7.544h3.168a.28.28 0 0 0 .279-.279V4.436a.278.278 0 0 0-.279-.277H16.55a.277.277 0 0 0-.277.277v2.829c0 .153.124.278.277.279ZM16.55 3.473h3.168a.279.279 0 0 0 .279-.278V.365a.278.278 0 0 0-.279-.277H16.55a.277.277 0 0 0-.277.277v2.83c0 .153.124.278.277.278ZM20.964 11.614h3.169a.279.279 0 0 0 .278-.278V8.507a.279.279 0 0 0-.278-.278h-3.169a.277.277 0 0 0-.276.277v2.83c0 .153.123.277.276.277Z"/></g><defs><clipPath id="a"><path fill="#fff" d="M0 0h100v25.995H0z"/></clipPath></defs></svg>
